svg/system/brush_3_fill.svg

<?xml version="1.0" encoding="UTF-8"?>
<svg width="24px" height="24px" viewBox="0 0 24 24" version="1.1" xmlns="http://www.w3.org/2000/svg" xmlns:xlink="http://www.w3.org/1999/xlink">
    <title>brush_3_fill</title>
    <g id="Icon" stroke="none" stroke-width="1" fill="none" fill-rule="evenodd">
        <g id="System" transform="translate(-96.000000, -528.000000)">
            <g id="brush_3_fill" transform="translate(96.000000, 528.000000)">
                <path d="M24,0 L24,24 L0,24 L0,0 L24,0 Z M12.5935,23.2578 L12.5819,23.2595 L12.5109,23.295 L12.4919,23.2987 L12.4767,23.295 L12.4057,23.2595 C12.3958,23.2564 12.387,23.259 12.3821,23.2649 L12.378,23.2758 L12.3609,23.7031 L12.3659,23.7235 L12.3769,23.7357 L12.4805,23.8097 L12.4953,23.8136 L12.5071,23.8097 L12.6107,23.7357 L12.6233,23.7197 L12.6267,23.7031 L12.6096,23.2758 C12.6076,23.2657 12.601,23.2593 12.5935,23.2578 Z M12.8584,23.1453 L12.8445,23.1473 L12.6598,23.2397 L12.6499,23.2499 L12.6472,23.2611 L12.6651,23.6906 L12.6699,23.7034 L12.6784,23.7105 L12.8793,23.8032 C12.8914,23.8069 12.9022,23.803 12.9078,23.7952 L12.9118,23.7812 L12.8777,23.1665 C12.8753,23.1546 12.8674,23.147 12.8584,23.1453 Z M12.143,23.1473 C12.1332,23.1424 12.1222,23.1453 12.1156,23.1526 L12.1099,23.1665 L12.0758,23.7812 C12.0751,23.7927 12.0828,23.8019 12.0926,23.8046 L12.1083,23.8032 L12.3092,23.7105 L12.3186,23.7024 L12.3225,23.6906 L12.3404,23.2611 L12.3372,23.2485 L12.3278,23.2397 L12.143,23.1473 Z" id="MingCute" fill-rule="nonzero"></path>
                <path d="M14.3294,2.30658 C15.9298,2.73541 16.8795,4.38042 16.4507,5.98081 L15.4154,9.84452 L16.7725,10.2081 C18.4273,10.6515 19.2832,12.3272 19.0505,13.8637 C18.9401,14.593 18.8969,15.3101 18.9858,15.832 C19.1706,16.9162615 19.7938639,17.9778982 20.4435694,18.9054381 L20.7981,19.3974 L20.7981,19.3974 C21.023,19.6998 21.0636,20.1091 20.8943,20.4474 C20.7249,20.786 20.3787,21 20,21 L5.5,21 C5.17998,21 4.87296,20.842 4.6867,20.5818 C4.19827,19.8984 3.84938,19.1241 3.56181,18.3382 C3.06276,16.9743 2.64541,15.045 3.01362,12.8356 C3.30996,11.0573 3.9306,9.70988 4.44248,8.84248 C5.09686,7.7336 6.37323,7.42167 7.43349,7.70576 L9.61989,8.2916 L10.6552,4.4279 C11.084,2.8275 12.729,1.87775 14.3294,2.30658 Z M7.97899,14.9999519 C7.42672,15.0039 6.98215,15.4547 6.98597017,16.007 C6.99319045,17.0311818 7.31313384,18.0119752 7.65455169,18.7770285 L7.75733,18.9999 L10.0335,18.9999 C9.91872,18.8151 9.78028,18.5767 9.64184,18.3011 C9.33187556,17.6840333 9.05903111,16.9533469 8.99841207,16.2536509 L8.98597017,15.993 C8.9821,15.4407 8.53126,14.9962 7.97899,14.9999519 Z M12.587,4.94554 L11.2929,9.77517 C11.15,10.3086 10.6016,10.6252 10.0682,10.4823 L6.91585,9.63761 C6.53283,9.53498 6.26993,9.681 6.16492,9.85895 C5.94201,10.2367 5.68791,10.737 5.46229,11.3531 L16.9725,14.4063 C16.9972,14.1129 17.0331,13.8283 17.0731,13.5642 C17.1777,12.8734 16.776,12.2796 16.2548,12.14 L13.9319,11.5176 C13.3984,11.3746 13.0818,10.8263 13.2248,10.2928 L14.5189,5.46318 C14.6618,4.92971 14.3452,4.38137 13.8118,4.23843 C13.2783,4.09549 12.73,4.41207 12.587,4.94554 Z" id="形状" fill="#09244B"></path>
            </g>
        </g>
    </g>
</svg>

<svg xmlns="http://www.w3.org/2000/svg" width="24" height="24"><g fill="none" fill-rule="evenodd"><path d="M24 0v24H0V0h24ZM12.594 23.258l-.012.002-.071.035-.02.004-.014-.004-.071-.036c-.01-.003-.019 0-.024.006l-.004.01-.017.428.005.02.01.013.104.074.015.004.012-.004.104-.074.012-.016.004-.017-.017-.427c-.002-.01-.009-.017-.016-.018Zm.264-.113-.014.002-.184.093-.01.01-.003.011.018.43.005.012.008.008.201.092c.012.004.023 0 .029-.008l.004-.014-.034-.614c-.003-.012-.01-.02-.02-.022Zm-.715.002a.023.023 0 0 0-.027.006l-.006.014-.034.614c0 .012.007.02.017.024l.015-.002.201-.093.01-.008.003-.011.018-.43-.003-.012-.01-.01-.184-.092Z"/><path fill="#09244B" d="M14.33 2.307a3 3 0 0 1 2.12 3.674l-1.035 3.864 1.358.363c1.654.444 2.51 2.12 2.278 3.656-.11.729-.154 1.446-.065 1.968.185 1.084.808 2.146 1.458 3.073l.354.492A1 1 0 0 1 20 21H5.5c-.32 0-.627-.158-.813-.418-.489-.684-.838-1.458-1.125-2.244-.5-1.364-.917-3.293-.548-5.502a11.633 11.633 0 0 1 1.428-3.994c.655-1.108 1.931-1.42 2.991-1.136l2.187.586 1.035-3.864a3 3 0 0 1 3.674-2.121ZM7.978 15a1 1 0 0 0-.993 1.007c.007 1.024.327 2.005.669 2.77l.102.223h2.277a8.944 8.944 0 0 1-.392-.699c-.31-.617-.583-1.348-.644-2.047l-.012-.261A1 1 0 0 0 7.979 15Zm4.608-10.054-1.294 4.83a1 1 0 0 1-1.225.706l-3.152-.844c-.383-.103-.646.043-.751.221a9.111 9.111 0 0 0-.703 1.494l11.51 3.053c.025-.293.061-.578.101-.842.105-.69-.297-1.284-.818-1.424l-2.323-.622a1 1 0 0 1-.707-1.225l1.294-4.83a1 1 0 0 0-1.932-.517Z"/></g></svg>
